icons/plexis/48/qemu-launcher.svg

<svg viewBox="0 0 48 48" xmlns="http://www.w3.org/2000/svg" xmlns:xlink="http://www.w3.org/1999/xlink">
  <linearGradient id="a" gradientTransform="matrix(0 -1 1 0 -.0000015 47.999998)" gradientUnits="userSpaceOnUse" x1="1" x2="47">
    <stop offset="0" stop-color="#333"/>
    <stop offset="1" stop-color="#3d3d3d"/>
  </linearGradient>
  <path d="m47 24c0 22.703-.297 23-23 23-22.703 0-23-.297-23-23 0-22.703.297-23 23-23 22.703 0 23 .297 23 23z" fill="url(#a)"/>
  <path d="m25 10a15 15 0 0 0-15 15 15 15 0 0 0  10.268 14.221c-1.388-3.85-2.452-9.798-3.096-12.654-.322-1.267-.131-2.53.086-3.795.44-1.319.585-2.695 1.188-3.961.918-.795.941-2.231 1.832-2.922.132.079.222.115.283.137h.094l0 0c .128-.13-1.248-1.528.027-.975.05-.735 1.202-.174 1.219-.816v-.002c.56.464.455.27 1.207.184.858-.544 1.257 1.29 1.613.268 1.051.133 2.168.465 3.162.799 1 .214 1.946.775 2.615 1.545l-.02.008.49.635c.064.11.117.225.17.34.199 1.649 2.082 1.626 3.342 2.223 1.078.372 2.377.939 2.51 2.205-.272-.058-1.324-1.26-2.152-1.377-.502-.031-1.035-.167-1.537-.35l-2.908-.523 0 0c-.145-.017-.289-.041-.434-.072v.018l-4.115-.496c.067.045.142.107.209.166l4.219.799v-.008l.291.072 1.18.258c.234.021.472.058.662.092 1.203.322 2.625.265 3.613 1.084-.258.481-1.7.209-2.416.146-.088-.017-.184-.03-.273-.045-.015-.002-.032-.008-.047 0-.978-.155-1.984-.162-2.926.121-.002 0-.008 0 0 0-.325.098-.641.238-.943.412-1.361.771-3.041 1.051-4.17 2.16-1.106 1.159-1.039 2.753-.85 4.236h.047v.377c.018.13.039.258.057.385.577 2.998 2.108 5.749 2.586 8.775.029.359.077.768.121 1.166a15 15 0 0 0 12.796-14.836 15 15 0 0 0-15-15zm2.316 7.23c-.454.012-.806.177-.906.459-.16.451.384 1.034 1.219 1.314.834.281 1.643.147 1.803-.305.16-.451-.384-1.042-1.219-1.322-.313-.105-.624-.153-.896-.146z" opacity=".1"/>
  <path d="m24 9a15 15 0 0 0-15 15 15 15 0 0 0  10.268 14.22c-1.388-3.85-2.453-9.797-3.098-12.654-.321-1.266-.13-2.526.088-3.795.44-1.318.585-2.691 1.187-3.96.919-.791.941-2.231 1.832-2.922.133.079.222.111.284.141l.093.01h.01c.128-.134-1.248-1.532.027-.98.05-.734 1.202-.173 1.219-.816v-.002c.56.464.455.27 1.21.184.855-.544 1.254 1.29 1.61.267 1.052.133 2.169.465 3.163.799 1.001.214 1.945.776 2.615 1.548h-.02l.491.64c.061.11.121.225.171.34.198 1.649 2.08 1.626 3.34 2.222 1.078.372 2.377.938 2.51 2.205-.272-.058-1.324-1.257-2.152-1.377-.498-.03-1.036-.167-1.538-.349l-2.908-.521v-.01c-.142-.02-.292-.04-.433-.07v.01l-4.115-.493c.067.045.141.106.206.166l4.22.799v-.008l.292.072 1.18.258c.234.021.468.058.662.096 1.203.318 2.626.26 3.616 1.08-.261.481-1.7.208-2.419.146-.088-.016-.184-.026-.271-.046-.02 0-.03-.01-.05-.01-.98-.15-1.98-.16-2.925.123-.002 0-.007-.001-.01 0-.325.098-.64.238-.943.412-1.362.77-3.04 1.051-4.172 2.16-1.1 1.155-1.04 2.753-.847 4.235h.046v.378c.018.13.039.258.057.385.574 2.998 2.108 5.749 2.584 8.775.03.362.08.769.12 1.166a15 15 0 0 0 12.8-14.824 15 15 0 0 0-15-15zm2.316 7.23c-.454.012-.806.177-.906.459-.16.451.385 1.034 1.219 1.311.834.285 1.641.15 1.803-.301.16-.451-.382-1.041-1.222-1.322-.31-.105-.621-.153-.894-.147z" fill="#ff8b3c"/>
</svg>

<svg xmlns="http://www.w3.org/2000/svg" viewBox="0 0 48 48">
 <defs>
  <linearGradient id="linearGradient3764" x1="1" x2="47" gradientUnits="userSpaceOnUse" gradientTransform="matrix(0,-1,1,0,-1.5e-6,47.999998)">
   <stop style="stop-color:#333;stop-opacity:1"/>
   <stop offset="1" style="stop-color:#3d3d3d;stop-opacity:1"/>
  </linearGradient>
 </defs>
 <g>
  
  
  
 </g>
 <g>
  <path d="m 47,24 C 47,46.703 46.703,47 24,47 1.297,47 1,46.703 1,24 1,1.297 1.297,1 24,1 46.703,1 47,1.297 47,24 z" style="fill:url(#linearGradient3764);fill-opacity:1"/>
 </g>
 <g>
  
 </g>
 <path d="m 25 10 a 15 15 0 0 0 -15 15 15 15 0 0 0 10.268 14.221 c -1.388 -3.85 -2.452 -9.798 -3.096 -12.654 -0.322 -1.267 -0.131 -2.53 0.086 -3.795 0.44 -1.319 0.585 -2.695 1.188 -3.961 0.918 -0.795 0.941 -2.231 1.832 -2.922 0.132 0.079 0.222 0.115 0.283 0.137 l 0.094 0 0 0 c 0.128 -0.13 -1.248 -1.528 0.027 -0.975 0.05 -0.735 1.202 -0.174 1.219 -0.816 l 0 -0.002 c 0.56 0.464 0.455 0.27 1.207 0.184 0.858 -0.544 1.257 1.29 1.613 0.268 1.051 0.133 2.168 0.465 3.162 0.799 1 0.214 1.946 0.775 2.615 1.545 l -0.02 0.008 0.49 0.635 c 0.064 0.11 0.117 0.225 0.17 0.34 0.199 1.649 2.082 1.626 3.342 2.223 1.078 0.372 2.377 0.939 2.51 2.205 -0.272 -0.058 -1.324 -1.26 -2.152 -1.377 -0.502 -0.031 -1.035 -0.167 -1.537 -0.35 l -2.908 -0.523 0 0 c -0.145 -0.017 -0.289 -0.041 -0.434 -0.072 l 0 0.018 -4.115 -0.496 c 0.067 0.045 0.142 0.107 0.209 0.166 l 4.219 0.799 0 -0.008 0.291 0.072 1.18 0.258 c 0.234 0.021 0.472 0.058 0.662 0.092 1.203 0.322 2.625 0.265 3.613 1.084 -0.258 0.481 -1.7 0.209 -2.416 0.146 -0.088 -0.017 -0.184 -0.03 -0.273 -0.045 -0.015 -0.002 -0.032 -0.008 -0.047 0 -0.978 -0.155 -1.984 -0.162 -2.926 0.121 -0.002 0 -0.008 0 0 0 -0.325 0.098 -0.641 0.238 -0.943 0.412 -1.361 0.771 -3.041 1.051 -4.17 2.16 -1.106 1.159 -1.039 2.753 -0.85 4.236 l 0.047 0 0 0.377 c 0.018 0.13 0.039 0.258 0.057 0.385 0.577 2.998 2.108 5.749 2.586 8.775 0.029 0.359 0.077 0.768 0.121 1.166 A 15 15 0 0 0 40 25 a 15 15 0 0 0 -15 -15 z m 2.316 7.23 c -0.454 0.012 -0.806 0.177 -0.906 0.459 -0.16 0.451 0.384 1.034 1.219 1.314 0.834 0.281 1.643 0.147 1.803 -0.305 0.16 -0.451 -0.384 -1.042 -1.219 -1.322 -0.313 -0.105 -0.624 -0.153 -0.896 -0.146 z" style="fill:#000;opacity:0.1;fill-opacity:1;stroke:none;fill-rule:nonzero"/>
 <path d="M 24 9 A 15 15 0 0 0 9 24 A 15 15 0 0 0 19.268 38.22 C 17.88 34.37 16.815 28.423 16.17 25.566 C 15.849 24.3 16.04 23.04 16.258 21.771 C 16.698 20.453 16.843 19.08 17.445 17.811 C 18.364 17.02 18.386 15.58 19.277 14.889 C 19.41 14.968 19.499 15 19.561 15.03 L 19.654 15.04 L 19.664 15.04 C 19.792 14.906 18.416 13.508 19.691 14.06 C 19.741 13.326 20.893 13.887 20.91 13.244 L 20.91 13.242 C 21.47 13.706 21.365 13.512 22.12 13.426 C 22.975 12.882 23.374 14.716 23.73 13.693 C 24.782 13.826 25.899 14.158 26.893 14.492 C 27.894 14.706 28.838 15.268 29.508 16.04 L 29.488 16.04 L 29.979 16.68 C 30.04 16.79 30.1 16.905 30.15 17.02 C 30.348 18.669 32.23 18.646 33.49 19.242 C 34.568 19.614 35.867 20.18 36 21.447 C 35.728 21.389 34.676 20.19 33.848 20.07 C 33.35 20.04 32.812 19.903 32.31 19.721 L 29.402 19.2 L 29.402 19.19 C 29.26 19.17 29.11 19.15 28.969 19.12 L 28.969 19.13 L 24.854 18.637 C 24.921 18.682 24.995 18.743 25.06 18.803 L 29.28 19.602 L 29.28 19.594 L 29.572 19.666 L 30.752 19.924 C 30.986 19.945 31.22 19.982 31.414 20.02 C 32.617 20.338 34.04 20.28 35.03 21.1 C 34.769 21.581 33.33 21.308 32.611 21.246 C 32.523 21.23 32.427 21.22 32.34 21.2 C 32.32 21.2 32.31 21.19 32.29 21.19 C 31.31 21.04 30.31 21.03 29.365 21.313 C 29.363 21.313 29.358 21.312 29.355 21.313 C 29.03 21.411 28.715 21.551 28.412 21.725 C 27.05 22.495 25.372 22.776 24.24 23.885 C 23.14 25.04 23.2 26.638 23.393 28.12 L 23.439 28.12 L 23.439 28.498 C 23.457 28.628 23.478 28.756 23.496 28.883 C 24.07 31.881 25.604 34.632 26.08 37.658 C 26.11 38.02 26.16 38.427 26.2 38.824 A 15 15 0 0 0 39 24 A 15 15 0 0 0 24 9 z M 26.316 16.23 C 25.862 16.242 25.51 16.407 25.41 16.689 C 25.25 17.14 25.795 17.723 26.629 18 C 27.463 18.285 28.27 18.15 28.432 17.699 C 28.592 17.248 28.05 16.658 27.21 16.377 C 26.9 16.272 26.589 16.224 26.316 16.23 z" style="fill:#ff8b3c;opacity:1;fill-opacity:1;stroke:none;fill-rule:nonzero"/>
</svg>
